polaris-icons/icons/newicons/ProfileMajor.svg

<svg width="20" height="20" viewBox="0 0 20 20" fill="none" xmlns="http://www.w3.org/2000/svg">
<path fill-rule="evenodd" clip-rule="evenodd" d="M7 8C7 6.34315 8.34315 5 10 5C11.6569 5 13 6.34315 13 8C13 9.65685 11.6569 11 10 11C8.34315 11 7 9.65685 7 8ZM10 6.5C9.17157 6.5 8.5 7.17157 8.5 8C8.5 8.82843 9.17157 9.5 10 9.5C10.8284 9.5 11.5 8.82843 11.5 8C11.5 7.17157 10.8284 6.5 10 6.5Z" fill="black"/>
<path fill-rule="evenodd" clip-rule="evenodd" d="M10 18C5.58172 18 2 14.4183 2 10C2 5.58172 5.58172 2 10 2C14.4183 2 18 5.58172 18 10C18 14.4183 14.4183 18 10 18ZM4.89885 14.0289C4.02291 12.9213 3.5 11.5217 3.5 10C3.5 6.41015 6.41015 3.5 10 3.5C13.5899 3.5 16.5 6.41015 16.5 10C16.5 11.5217 15.9771 12.9213 15.1012 14.0288C13.7283 12.7356 11.9027 12 10 12C8.09729 12 6.27169 12.7356 4.89885 14.0289ZM5.95877 15.0913C7.06827 15.9732 8.47261 16.5 10 16.5C11.5274 16.5 12.9317 15.9732 14.0412 15.0913C12.9477 14.076 11.5023 13.5 10 13.5C8.49767 13.5 7.05227 14.076 5.95877 15.0913Z" fill="black"/>
</svg>

<svg viewBox="0 0 20 20" fill="none" xmlns="http://www.w3.org/2000/svg"><path fill-rule="evenodd" clip-rule="evenodd" d="M7 8a3 3 0 1 1 6 0 3 3 0 0 1-6 0Zm3-1.5a1.5 1.5 0 1 0 0 3 1.5 1.5 0 0 0 0-3Z" fill="#5C5F62"/><path fill-rule="evenodd" clip-rule="evenodd" d="M10 18a8 8 0 1 1 0-16 8 8 0 0 1 0 16Zm-5.101-3.971a6.5 6.5 0 1 1 10.202 0 7.45 7.45 0 0 0-5.101-2.029 7.45 7.45 0 0 0-5.101 2.029Zm1.06 1.062a6.472 6.472 0 0 0 4.041 1.409 6.472 6.472 0 0 0 4.041-1.409 5.95 5.95 0 0 0-4.041-1.591 5.95 5.95 0 0 0-4.041 1.591Z" fill="#5C5F62"/></svg>
